public/svg/agreement.svg

<svg width="413" height="222" viewBox="0 0 413 222" fill="none" xmlns="http://www.w3.org/2000/svg">
<path d="M278.978 15.9522C279.957 16.6054 280.986 17.2783 282.18 17.4401C283.374 17.602 284.772 17.0682 285.103 15.9948C285.507 14.6823 284.225 13.4873 283.073 12.6343L279.421 9.92964C278.752 9.38107 277.997 8.9296 277.182 8.59068C276.772 8.42401 276.327 8.34465 275.88 8.35847C275.433 8.3723 274.995 8.47896 274.598 8.67055C274.205 8.9157 273.887 9.24969 273.674 9.64073C273.46 10.0318 273.359 10.4668 273.379 10.9045C273.431 11.7817 273.744 12.6285 274.283 13.3516C274.961 14.3289 275.846 15.1692 276.884 15.822C277.923 16.4748 279.093 16.9265 280.325 17.15" fill="#2F2E41"/>
<path d="M277.355 9.10257C277.249 6.65452 280.07 4.7161 282.713 4.86934C285.356 5.02258 287.628 6.74204 289.127 8.76202C290.626 10.7803 291.526 13.118 292.707 15.3094C293.887 17.5008 295.46 19.6464 297.806 20.782C300.151 21.9159 303.416 21.7135 305.037 19.7776C305.541 20.4845 305.858 21.2914 305.962 22.1327C306.066 22.9741 305.954 23.8263 305.636 24.6202C304.972 26.2096 303.735 27.5378 302.133 28.3795C301.495 28.7292 300.814 29.0061 300.104 29.2043C299.812 28.4739 299.4 27.7892 298.883 27.1739C299.117 27.9023 299.206 28.6637 299.146 29.4214C298.053 29.6153 296.927 29.5989 295.841 29.3732C294.774 29.1525 293.777 28.7048 292.929 28.0657C292.082 27.4266 291.407 26.6136 290.959 25.6913C289.967 23.521 290.472 21.0464 290.26 18.6987C290.05 16.3505 288.52 13.6699 285.972 13.6317C284.032 13.6021 284.289 13.7501 283.06 15.1384" fill="#2F2E41"/>
<path d="M259.737 21.966C259.737 24.7803 260.946 27.4794 263.098 29.4694C265.25 31.4595 268.169 32.5775 271.212 32.5775C277.549 32.5775 283.569 25.7859 283.569 19.9253C283.569 14.0647 277.549 11.3545 271.212 11.3545C268.169 11.3545 265.25 12.4725 263.098 14.4625C260.946 16.4526 259.737 19.1516 259.737 21.966V21.966Z" fill="#2F2E41"/>
<path d="M265.556 36.9707C259.633 35.8498 255.814 30.5007 257.026 25.0229C258.238 19.5452 264.022 16.0133 269.945 17.1341C275.869 18.2549 279.688 23.6042 278.476 29.0819C277.264 34.5596 271.48 38.0915 265.556 36.9707Z" fill="#FFB6B6"/>
<path d="M254 23.1902C257.24 24.0085 260.512 24.8663 261.776 23.1902C262.022 22.0789 262.487 21.019 263.148 20.0639C263.273 21.1335 263.544 22.1841 263.956 23.1902C268.05 24.0132 271.877 24.21 275.183 23.1902C275.638 23.9507 275.902 24.796 275.956 25.6635C276.119 25.5685 276.29 25.4853 276.468 25.4146C276.573 25.3596 276.689 25.3261 276.81 25.3162C276.93 25.3064 277.051 25.3204 277.165 25.3574C277.244 25.4013 277.31 25.4613 277.36 25.5328C277.41 25.6042 277.441 25.6852 277.452 25.7696C277.474 25.9399 277.465 26.1123 277.425 26.2798C277.379 26.8636 277.19 27.4301 276.874 27.9368C276.748 28.1114 276.585 28.2599 276.395 28.3731C276.204 28.4862 275.99 28.5614 275.766 28.5939C275.307 30.9815 271.653 34.2098 271.653 34.2098C282.686 34.618 282.686 27.696 282.686 21.1496L281.362 18.7008H276.949V13.395H264.592C261.783 13.3957 259.089 14.4279 257.103 16.2647C255.117 18.1015 254.001 20.5926 254 23.1902V23.1902Z" fill="#2F2E41"/>
<path d="M254 23.1902C257.24 24.0085 260.512 24.8663 261.776 23.1902C262.022 22.0789 262.487 21.019 263.148 20.0639C263.273 21.1335 263.544 22.1841 263.956 23.1902C268.05 24.0132 271.877 24.21 275.183 23.1902C275.638 23.9507 275.902 24.796 275.956 25.6635C276.119 25.5685 276.29 25.4853 276.468 25.4146C276.573 25.3596 276.689 25.3261 276.81 25.3162C276.93 25.3064 277.051 25.3204 277.165 25.3574C277.244 25.4013 277.31 25.4613 277.36 25.5328C277.41 25.6042 277.441 25.6852 277.452 25.7696C277.474 25.9399 277.465 26.1123 277.425 26.2798C277.379 26.8636 277.19 27.4301 276.874 27.9368C276.748 28.1114 276.585 28.2599 276.395 28.3731C276.204 28.4862 275.99 28.5614 275.766 28.5939C275.307 30.9815 271.653 34.2098 271.653 34.2098C282.686 34.618 282.686 27.696 282.686 21.1496L281.362 18.7008H276.949V13.395H264.592C261.783 13.3957 259.089 14.4279 257.103 16.2647C255.117 18.1015 254.001 20.5926 254 23.1902V23.1902Z" fill="#2F2E41"/>
<path d="M376.792 221.601V181.553C376.792 181.553 392.399 209.945 376.792 221.601Z" fill="#F1F1F1"/>
<path d="M377.756 221.594L348.254 194.511C348.254 194.511 379.725 202.215 377.756 221.594Z" fill="#F1F1F1"/>
<path d="M216.792 76.8616C216.968 77.0426 217.13 77.2372 217.275 77.4435L239.889 76.8902L242.528 72.0693L250.323 75.0999L246.482 84.0882C246.172 84.8143 245.635 85.4202 244.951 85.8149C244.267 86.2095 243.473 86.3717 242.689 86.277L217.139 83.1904C216.536 83.9534 215.716 84.5149 214.786 84.8001C213.857 85.0853 212.862 85.0807 211.935 84.7869C211.009 84.4932 210.193 83.9243 209.597 83.1557C209.002 82.3872 208.654 81.4556 208.601 80.4847C208.548 79.5138 208.791 78.5498 209.299 77.7208C209.807 76.8917 210.556 76.237 211.445 75.8437C212.334 75.4504 213.322 75.3371 214.277 75.519C215.232 75.7008 216.11 76.1691 216.792 76.8616V76.8616Z" fill="#FFB7B7"/>
<path d="M290.512 214.201H283.076L279.539 185.52L290.513 185.521L290.512 214.201Z" fill="#FFB7B7"/>
<path d="M292.408 221.409L268.432 221.408V221.105C268.432 218.63 269.415 216.256 271.165 214.506C272.915 212.756 275.289 211.773 277.764 211.773H277.764L292.408 211.774L292.408 221.409Z" fill="#2F2E41"/>
<path d="M222.992 214.036L216.154 211.115L224.168 183.35L234.26 187.661L222.992 214.036Z" fill="#FFB7B7"/>
<path d="M221.905 221.409L199.856 211.99L199.976 211.711C200.948 209.435 202.785 207.638 205.081 206.717C207.378 205.795 209.947 205.823 212.223 206.795L212.224 206.795L225.69 212.548L221.905 221.409Z" fill="#2F2E41"/>
<path d="M254.369 83.0747L253.831 91.788L269.548 93.4699L285.994 95.2299L281.153 81.999L254.369 83.0747Z" fill="#FFB7B7"/>
<path d="M253.336 91.9005L247.23 49.3344L257.813 45.8659L260.922 41.603L276.048 42.4981L278.269 47.4726L286.334 51.2839L285.095 74.3042L285.999 93.5614L253.336 91.9005Z" fill="#2F2E41"/>
<path d="M249.492 80.4934L238.728 76.1864L238.773 75.9949C238.82 75.8018 243.401 56.6557 244.01 53.579C244.643 50.3736 246.959 49.4874 247.057 49.4513L247.129 49.4248L251.389 50.7215L253.26 65.4225L249.492 80.4934Z" fill="#2F2E41"/>
<path d="M228.531 208.995L214.201 206.055L237.104 142.858L244.943 121.302C244.943 121.302 249.914 104.019 252.16 97.3307L253.516 88.3564L285.604 91.9083C285.604 91.9083 294.567 105.07 291.844 126.523L293.075 207.158L278.746 207.893L266.743 126.569L245.677 171.15C245.677 171.15 239.038 190.174 234.287 194.298L228.531 208.995Z" fill="#2F2E41"/>
<path d="M272.736 94.9015C272.988 94.8955 273.24 94.9093 273.49 94.943L288.46 77.9837L286.719 72.7714L294.242 69.1152L298.221 78.043C298.543 78.7643 298.622 79.5704 298.446 80.3403C298.27 81.1101 297.85 81.8023 297.247 82.3127L277.612 98.95C277.762 99.9107 277.616 100.894 277.193 101.77C276.77 102.645 276.091 103.371 275.245 103.851C274.399 104.331 273.428 104.543 272.459 104.457C271.491 104.371 270.571 103.992 269.823 103.371C269.075 102.75 268.534 101.916 268.271 100.98C268.009 100.044 268.037 99.0498 268.353 98.1304C268.67 97.2109 269.258 96.4095 270.041 95.8327C270.824 95.2559 271.764 94.9311 272.736 94.9015V94.9015Z" fill="#FFB7B7"/>
<path d="M287.266 79.6346L281.021 64.9457L283.457 54.714L286.081 51.3986C286.273 51.3164 286.48 51.275 286.689 51.2769C286.898 51.2789 287.105 51.3242 287.295 51.41C288.263 51.7995 289.087 52.9933 289.745 54.9584L295.597 71.6282L287.266 79.6346Z" fill="#2F2E41"/>
<path d="M117.867 207.936L124.587 210.338L137.048 185.561L127.13 182.017L117.867 207.936Z" fill="#9F616A"/>
<path d="M113.825 213.838L116.937 205.129L130.171 209.859C132.406 210.661 134.232 212.316 135.248 214.463C136.264 216.609 136.387 219.07 135.591 221.307L135.493 221.581L113.825 213.838Z" fill="#2F2E41"/>
<path d="M161.566 214.583L168.702 214.583L172.097 187.058L161.564 187.058L161.566 214.583Z" fill="#9F616A"/>
<path d="M159.745 212.253L173.798 212.252H173.799C174.975 212.252 176.14 212.484 177.226 212.934C178.313 213.384 179.3 214.044 180.132 214.876C180.964 215.707 181.623 216.695 182.074 217.781C182.524 218.868 182.755 220.032 182.755 221.209V221.5L159.745 221.5L159.745 212.253Z" fill="#2F2E41"/>
<path d="M145.302 38.7292L148.405 32.5967C148.405 32.5967 159.967 35.4934 161.018 42.1942L145.302 38.7292Z" fill="#F1F1F1"/>
<path d="M132.495 108.85L140.935 155.949L118.525 195.581L131.913 200.82L154.615 162.402L157.525 151.924L159.271 206.64L171.345 206.274L176.881 155.182L168.002 107.686L132.495 108.85Z" fill="#2F2E41"/>
<path d="M148.517 119.984C136.118 119.984 128.246 117.613 128.069 117.575L127.784 117.514L134.242 87.5717L134.533 59.9522C134.533 48.2479 142.236 39.619 143.305 38.8226C143.485 38.1121 143.818 37.4495 144.28 36.8811C144.743 36.3126 145.324 35.8519 145.983 35.5313C148.552 34.3654 151.692 35.7644 151.825 35.8246L161.249 39.358L161.293 39.4888C161.407 39.8236 173.82 80.5747 173.82 80.5747C173.82 80.5747 173.069 116.181 172.807 117.347C172.807 117.347 155.406 119.984 148.517 119.984Z" fill="#3F3D56"/>
<path d="M158.044 30.6659C165.079 30.6659 170.782 24.963 170.782 17.9281C170.782 10.8933 165.079 5.19043 158.044 5.19043C151.01 5.19043 145.307 10.8933 145.307 17.9281C145.307 24.963 151.01 30.6659 158.044 30.6659Z" fill="#9F616A"/>
<path opacity="0.2" d="M143.842 62.2109L166.127 93.3031L169.418 78.7834L143.842 62.2109Z" fill="black"/>
<path d="M213.709 83.3662C213.082 83.862 212.354 84.2143 211.576 84.3984C210.799 84.5825 209.99 84.5938 209.208 84.4315C208.425 84.2693 207.688 83.9375 207.047 83.4595C206.407 82.9814 205.879 82.3688 205.501 81.6647L186.32 84.7349L190.476 75.5355L208.053 74.0305C209.278 73.4738 210.665 73.3859 211.95 73.7832C213.236 74.1806 214.33 75.0357 215.028 76.1864C215.725 77.3372 215.975 78.7037 215.732 80.0269C215.489 81.3502 214.769 82.5383 213.709 83.3662H213.709Z" fill="#9F616A"/>
<path d="M191.464 75.0119L198.356 74.3359L200.266 83.95L191.593 84.1034L191.464 75.0119Z" fill="#F1F1F1"/>
<path d="M197.113 87.3003L163.359 84.2948L146.316 57.1894L146.263 56.9498C145.78 54.7356 146.118 52.4211 147.216 50.4383C148.314 48.4555 150.096 46.94 152.229 46.1748C154.363 45.4097 156.702 45.4471 158.809 46.2801C160.917 47.1131 162.65 48.6848 163.684 50.7017L173.689 70.2172L193.881 73.2694L197.113 87.3003Z" fill="#3F3D56"/>
<path d="M147.195 28.9875L157.767 29.3669C158.411 29.3901 160.16 22.4351 160.389 20.9924C160.57 20.053 161.087 19.2117 161.843 18.6255C162.599 18.0393 163.542 17.7483 164.497 17.8068C165.288 17.8816 167.284 16.4031 169.343 14.6523C173.253 11.3284 173.05 5.08578 168.755 2.27713C168.638 2.20036 168.522 2.13027 168.409 2.06686C165.7 0.550407 162.531 0.0411816 159.426 0.00233439C156.612 -0.0328645 153.717 0.321368 151.238 1.65348C146.793 4.04169 144.427 9.26059 144.219 14.3024C144.011 19.3441 145.628 24.2741 147.462 28.975" fill="#2F2E41"/>
<path d="M412.224 222H0.553616C0.406788 222 0.265973 221.941 0.16215 221.838C0.0583268 221.734 0 221.593 0 221.446C0 221.299 0.0583268 221.159 0.16215 221.055C0.265973 220.951 0.406788 220.893 0.553616 220.893H412.444C412.591 220.893 412.732 220.951 412.835 221.055C412.939 221.159 412.998 221.299 412.998 221.446C412.998 221.752 412.53 222 412.224 222Z" fill="#CBCBCB"/>
</svg>

<svg fill="none" xmlns="http://www.w3.org/2000/svg" viewBox="0 0 413 222" xmlns:xlink="http://www.w3.org/1999/xlink"><defs><path d="M254 23.2c3.2.8 6.5 1.7 7.8 0 .2-1.1.7-2.2 1.3-3.1.2 1 .4 2 .9 3 4 1 7.9 1.1 11.2 0 .4.9.7 1.7.8 2.6a3.8 3.8 0 0 1 .8-.4h.4l.2.2v.8c0 .6-.2 1.1-.5 1.6l-.5.5-.6.2c-.5 2.4-4.1 5.6-4.1 5.6 11 .4 11-6.5 11-13l-1.3-2.5h-4.5v-5.3h-12.3a11 11 0 0 0-7.5 2.9 9.4 9.4 0 0 0-3.1 6.9Z" fill="#2F2E41" id="reuse-0"/></defs><path d="M279 16c1 .6 2 1.3 3.2 1.4 1.2.2 2.6-.3 2.9-1.4.4-1.3-.9-2.5-2-3.4l-3.7-2.7a9 9 0 0 0-2.2-1.3 3.2 3.2 0 0 0-2.6 0l-1 1-.2 1.3c0 .9.3 1.7.9 2.5a9 9 0 0 0 2.6 2.4c1 .7 2.2 1.1 3.4 1.3" fill="#2F2E41"/><path d="M277.4 9.1c-.2-2.4 2.7-4.4 5.3-4.2a9 9 0 0 1 6.4 3.9c1.5 2 2.4 4.3 3.6 6.5 1.2 2.2 2.8 4.3 5.1 5.5 2.4 1.1 5.6 1 7.2-1a5.1 5.1 0 0 1 .6 4.8c-.6 1.6-1.9 3-3.5 3.8l-2 .8c-.3-.7-.7-1.4-1.2-2 .2.7.3 1.5.2 2.2-1 .2-2.2.2-3.3 0-1-.2-2-.7-2.9-1.3a6.6 6.6 0 0 1-2-2.4c-1-2.2-.4-4.7-.6-7-.3-2.3-1.8-5-4.3-5-2-.1-1.7 0-3 1.4" fill="#2F2E41"/><path d="M259.7 22c0 2.8 1.2 5.5 3.4 7.5 2.1 2 5 3 8.1 3 6.3 0 12.4-6.7 12.4-12.6 0-5.8-6-8.5-12.4-8.5-3 0-6 1-8.1 3-2.2 2-3.4 4.8-3.4 7.6Z" fill="#2F2E41"/><path d="M265.6 37c-6-1.2-9.8-6.5-8.6-12 1.2-5.5 7-9 13-7.9 5.9 1.2 9.7 6.5 8.5 12-1.2 5.5-7 9-13 7.9Z" fill="#FFB6B6"/><use xlink:href="#reuse-0"/><use xlink:href="#reuse-0"/><path d="M376.8 221.6v-40s15.6 28.3 0 40Z" fill="#F1F1F1"/><path d="m377.8 221.6-29.5-27s31.4 7.6 29.5 27Z" fill="#F1F1F1"/><path d="m216.8 76.9.5.5 22.6-.5 2.6-4.8 7.8 3-3.8 9a3.6 3.6 0 0 1-3.8 2.2L217 83.2a4.8 4.8 0 1 1-.3-6.3ZM290.5 214.2h-7.4l-3.6-28.7h11v28.7Z" fill="#FFB7B7"/><path d="M292.4 221.4h-24v-.3a9.3 9.3 0 0 1 9.4-9.3h14.6v9.6Z" fill="#2F2E41"/><path d="m223 214-6.8-2.9 8-27.8 10 4.4L223 214Z" fill="#FFB7B7"/><path d="m222 221.4-22.1-9.4v-.3a9.3 9.3 0 0 1 12.3-5l13.5 5.8-3.8 9Z" fill="#2F2E41"/><path d="m254.4 83-.6 8.8 15.7 1.7 16.5 1.7-4.8-13.2-26.8 1Z" fill="#FFB7B7"/><path d="m253.3 91.9-6-42.6 10.5-3.4 3.1-4.3 15.1.9 2.3 5 8 3.8-1.2 23 .9 19.3-32.7-1.7Z" fill="#2F2E41"/><path d="m249.5 80.5-10.8-4.3V76c.1-.2 4.7-19.3 5.3-22.4.6-3.2 3-4.1 3-4.1h.1l4.3 1.2 1.9 14.7-3.8 15ZM228.5 209l-14.3-3 22.9-63.1 7.8-21.6s5-17.3 7.3-24l1.3-9 32.1 3.6s9 13.2 6.2 34.6l1.3 80.7-14.4.7-12-81.3-21 44.6s-6.7 19-11.4 23.1l-5.8 14.7Z" fill="#2F2E41"/><path d="M272.7 94.9h.8l15-17-1.8-5.1 7.5-3.7 4 9a3.6 3.6 0 0 1-1 4.2L277.6 99a4.8 4.8 0 1 1-4.9-4.1Z" fill="#FFB7B7"/><path d="M287.3 79.6 281 65l2.5-10.2 2.6-3.3a1.5 1.5 0 0 1 1.2 0c1 .4 1.8 1.6 2.4 3.6l5.9 16.6-8.3 8Z" fill="#2F2E41"/><path d="m117.9 208 6.7 2.3 12.4-24.7-9.9-3.6-9.2 26Z" fill="#9F616A"/><path d="m113.8 213.8 3.1-8.7 13.3 4.8a9 9 0 0 1 5.4 11.4l-.1.3-21.7-7.8Z" fill="#2F2E41"/><path d="M161.6 214.6h7.1l3.4-27.5h-10.5v27.5Z" fill="#9F616A"/><path d="M159.7 212.3h14.1a9 9 0 0 1 9 9v.2h-23v-9.2Z" fill="#2F2E41"/><path d="m145.3 38.7 3.1-6.1s11.6 2.9 12.6 9.6l-15.7-3.5Z" fill="#F1F1F1"/><path d="m132.5 108.8 8.4 47.1-22.4 39.7 13.4 5.2 22.7-38.4 3-10.5 1.7 54.7 12-.3 5.6-51.1-8.9-47.5-35.5 1.1Z" fill="#2F2E41"/><path d="M148.5 120c-12.4 0-20.3-2.4-20.4-2.4h-.3l6.4-30 .3-27.6c0-11.8 7.7-20.4 8.8-21.2a5 5 0 0 1 2.7-3.3c2.6-1.1 5.7.3 5.8.3l9.4 3.6 12.6 41.2s-.7 35.6-1 36.7c0 0-17.4 2.7-24.3 2.7Z" fill="#3F3D56"/><path d="M158 30.7a12.7 12.7 0 1 0 0-25.5 12.7 12.7 0 0 0 0 25.5Z" fill="#9F616A"/><path opacity=".2" d="m143.8 62.2 22.3 31.1 3.3-14.5-25.6-16.6Z" fill="#000"/><path d="M213.7 83.4a5.5 5.5 0 0 1-8.2-1.7l-19.2 3 4.2-9.2L208 74a5.5 5.5 0 0 1 5.6 9.4Z" fill="#9F616A"/><path d="m191.5 75 6.9-.7 1.9 9.7-8.7.1-.1-9Z" fill="#F1F1F1"/><path d="m197.1 87.3-33.7-3-17-27.1-.1-.3a9.3 9.3 0 0 1 17.4-6.2l10 19.5 20.2 3 3.2 14.1Z" fill="#3F3D56"/><path d="m147.2 29 10.6.4c.6 0 2.4-7 2.6-8.4a4 4 0 0 1 4.1-3.2c.8 0 2.8-1.4 4.8-3.1a7.8 7.8 0 0 0-.9-12.6c-2.7-1.5-5.9-2-9-2.1-2.8 0-5.7.3-8.2 1.7-4.4 2.3-6.8 7.6-7 12.6-.2 5 1.4 10 3.3 14.7" fill="#2F2E41"/><path d="M412.2 222H.6a.6.6 0 0 1-.6-.6.6.6 0 0 1 .6-.5h411.8c.2 0 .3 0 .4.2l.2.3c0 .4-.5.6-.8.6Z" fill="#CBCBCB"/></svg>
